; generated by PrusaSlicer 2.4.2-rc1+linux-x64-GTK3 on 2022-05-19 at 17:51:54 UTC

; 

; external perimeters extrusion width = 0.60mm
; perimeters extrusion width = 0.50mm
; infill extrusion width = 0.50mm
; solid infill extrusion width = 0.50mm
; top infill extrusion width = 0.45mm
; first layer extrusion width = 0.42mm

M73 P0 R116
M73 Q0 S116
M201 X1000 Y1000 Z200 E5000 ; sets maximum accelerations, mm/sec^2
M203 X200 Y200 Z12 E120 ; sets maximum feedrates, mm / sec
M204 P1250 R1250 T1250 ; sets acceleration (P, T) and retract acceleration (R), mm/sec^2
M205 X8.00 Y8.00 Z0.40 E4.50 ; sets the jerk limits, mm/sec
M205 S0 T0 ; sets the minimum extruding and travel feed rate, mm/sec
M107 ; disable fan
;TYPE:Custom
M862.3 P "MK3S" ; printer model check
M862.1 P0.4 ; nozzle diameter check
M115 U3.10.1 ; tell printer latest fw version
G90 ; use absolute coordinates
M83 ; extruder relative mode
M104 S215 ; set extruder temp
M140 S60 ; set bed temp
M190 S60 ; wait for bed temp
M109 S215 ; wait for extruder temp
G28 W ; home all without mesh bed level
G80 ; mesh bed leveling
G1 Z0.2 F720
G1 Y-3 F1000 ; go outside print area
G92 E0
G1 X60 E9 F1000 ; intro line
G1 X100 E12.5 F1000 ; intro line
G92 E0
M221 S95

; Don't change E values below. Excessive value can damage the printer.

G21 ; set units to millimeters
G90 ; use absolute coordinates
M83 ; use relative distances for extrusion
M900 K0.05 ; Filament gcode LA 1.5
M900 K30 ; Filament gcode LA 1.0
M107 ; disable fan
;LAYER_CHANGE
;Z:0.2
;HEIGHT:0.2
;BEFORE_LAYER_CHANGE
G92 E0.0
;0.2


G1 Z.2 F720 ; move to next layer (0)
;AFTER_LAYER_CHANGE
;0.2
G1 E-.8 F2100 ; retract
G1 Z.6 F720 ; lift Z
G1 X93.099 Y76.776 F10800 ; move to first skirt point
G1 Z.2 F720 ; restore layer Z
G1 E.8 F2100 ;  ; unretract
M204 S800 ; adjust acceleration
;TYPE:Skirt/Brim
;WIDTH:0.42
G1 F1200
G1 X94.829 Y74.934 E.07922 ; skirt
G1 X96.776 Y73.099 E.0839 ; skirt
G1 X98.953 Y71.298 E.08858 ; skirt
G1 X101.12 Y69.729 E.0839 ; skirt
G1 X103.254 Y68.375 E.07922 ; skirt
G1 X105.596 Y67.082 E.0839 ; skirt
G1 X108.015 Y65.939 E.0839 ; skirt
G1 X110.642 Y64.899 E.08858 ; skirt
G1 X113.188 Y64.076 E.0839 ; skirt
G1 X115.636 Y63.448 E.07922 ; skirt
G1 X118.411 Y62.919 E.08858 ; skirt
G1 X120.917 Y62.602 E.07922 ; skirt
G1 X123.587 Y62.429 E.0839 ; skirt
G1 X126.413 Y62.429 E.08858 ; skirt
G1 X129.083 Y62.602 E.0839 ; skirt
G1 X131.589 Y62.919 E.07922 ; skirt
G1 X134.364 Y63.448 E.08858 ; skirt
G1 X136.955 Y64.118 E.0839 ; skirt
G1 X139.358 Y64.899 E.07922 ; skirt
G1 X141.985 Y65.939 E.08858 ; skirt
G1 X144.404 Y67.082 E.0839 ; skirt
G1 X146.618 Y68.299 E.07922 ; skirt
G1 X148.88 Y69.729 E.0839 ; skirt
G1 X150.818 Y71.132 E.07501 ; skirt
G1 X153.224 Y73.099 E.09746 ; skirt
G1 X155.066 Y74.829 E.07922 ; skirt
G1 X156.901 Y76.776 E.0839 ; skirt
G1 X158.702 Y78.953 E.08858 ; skirt
G1 X160.271 Y81.12 E.0839 ; skirt
G1 X161.625 Y83.254 E.07922 ; skirt
G1 X162.918 Y85.596 E.0839 ; skirt
G1 X164.061 Y88.015 E.0839 ; skirt
G1 X165.101 Y90.642 E.08858 ; skirt
G1 X165.924 Y93.188 E.0839 ; skirt
G1 X166.552 Y95.636 E.07922 ; skirt
G1 X167.081 Y98.411 E.08858 ; skirt
G1 X167.398 Y100.917 E.07922 ; skirt
G1 X167.571 Y103.587 E.0839 ; skirt
G1 X167.571 Y106.413 E.08858 ; skirt
G1 X167.398 Y109.083 E.0839 ; skirt
G1 X167.081 Y111.589 E.07922 ; skirt
G1 X166.552 Y114.364 E.08858 ; skirt
G1 X165.882 Y116.955 E.0839 ; skirt
G1 X165.101 Y119.358 E.07922 ; skirt
G1 X164.061 Y121.985 E.08858 ; skirt
G1 X162.918 Y124.404 E.0839 ; skirt
G1 X161.701 Y126.618 E.07922 ; skirt
G1 X160.271 Y128.88 E.0839 ; skirt
G1 X158.868 Y130.818 E.07501 ; skirt
G1 X156.901 Y133.224 E.09746 ; skirt
G1 X155.171 Y135.066 E.07922 ; skirt
G1 X153.224 Y136.901 E.0839 ; skirt
G1 X151.047 Y138.702 E.08858 ; skirt
G1 X148.88 Y140.271 E.0839 ; skirt
G1 X146.746 Y141.625 E.07922 ; skirt
G1 X144.404 Y142.918 E.0839 ; skirt
G1 X141.985 Y144.061 E.0839 ; skirt
G1 X139.358 Y145.101 E.08858 ; skirt
G1 X136.812 Y145.924 E.0839 ; skirt
G1 X134.364 Y146.552 E.07922 ; skirt
G1 X131.589 Y147.081 E.08858 ; skirt
G1 X129.083 Y147.398 E.07922 ; skirt
G1 X126.413 Y147.571 E.0839 ; skirt
G1 X123.587 Y147.571 E.08858 ; skirt
G1 X120.917 Y147.398 E.0839 ; skirt
G1 X118.411 Y147.081 E.07922 ; skirt
G1 X115.636 Y146.552 E.08858 ; skirt
G1 X113.045 Y145.882 E.0839 ; skirt
G1 X110.642 Y145.101 E.07922 ; skirt
G1 X108.015 Y144.061 E.08858 ; skirt
G1 X105.596 Y142.918 E.0839 ; skirt
G1 X103.382 Y141.701 E.07922 ; skirt
G1 X101.12 Y140.271 E.0839 ; skirt
G1 X99.182 Y138.868 E.07501 ; skirt
G1 X96.776 Y136.901 E.09746 ; skirt
G1 X94.934 Y135.171 E.07922 ; skirt
G1 X93.099 Y133.224 E.0839 ; skirt
G1 X91.298 Y131.047 E.08858 ; skirt
G1 X89.729 Y128.88 E.0839 ; skirt
G1 X88.375 Y126.746 E.07922 ; skirt
G1 X87.082 Y124.404 E.0839 ; skirt
G1 X85.939 Y121.985 E.0839 ; skirt
G1 X84.899 Y119.358 E.08858 ; skirt
G1 X84.076 Y116.812 E.0839 ; skirt
G1 X83.448 Y114.364 E.07922 ; skirt
G1 X82.919 Y111.589 E.08858 ; skirt
G1 X82.602 Y109.083 E.07922 ; skirt
G1 X82.429 Y106.413 E.0839 ; skirt
G1 X82.429 Y103.587 E.08858 ; skirt
G1 X82.602 Y100.917 E.0839 ; skirt
G1 X82.919 Y98.411 E.07922 ; skirt
G1 X83.448 Y95.636 E.08858 ; skirt
G1 X84.118 Y93.045 E.0839 ; skirt
G1 X84.899 Y90.642 E.07922 ; skirt
G1 X85.939 Y88.015 E.08858 ; skirt
G1 X87.082 Y85.596 E.0839 ; skirt
G1 X88.299 Y83.382 E.07922 ; skirt
G1 X89.729 Y81.12 E.0839 ; skirt
G1 X91.132 Y79.182 E.07501 ; skirt
G1 X93.061 Y76.822 E.09557 ; skirt
M204 S1000 ; adjust acceleration
; printing object pilea.stl id:0 copy 0
;WIPE_START
G1 F8640
G1 X94.829 Y74.934 E-.59721 ; wipe and retract
G1 X95.342 Y74.451 E-.16279 ; wipe and retract
;WIPE_END
G1 E-.04 F2100 ; retract
G1 Z.6 F720 ; lift Z
G1 X95.303 Y78.819 F10800 ; move to first perimeter point
G1 Z.2 F720 ; restore layer Z
G1 E.8 F2100 ;  ; unretract
M204 S800 ; adjust acceleration
;TYPE:External perimeter
G1 F1200
G1 X96.938 Y77.078 E.07487 ; perimeter
G1 X98.819 Y75.303 E.08109 ; perimeter
G1 X100.735 Y73.718 E.07797 ; perimeter
G1 X102.747 Y72.256 E.07798 ; perimeter
G1 X104.847 Y70.923 E.07798 ; perimeter
G1 X107.027 Y69.725 E.07798 ; perimeter
G1 X109.277 Y68.666 E.07798 ; perimeter
G1 X111.589 Y67.751 E.07798 ; perimeter
G1 X113.955 Y66.982 E.07798 ; perimeter
G1 X116.364 Y66.364 E.07798 ; perimeter
G1 X118.807 Y65.898 E.07798 ; perimeter
G1 X121.274 Y65.586 E.07798 ; perimeter
G1 X123.756 Y65.43 E.07797 ; perimeter
G1 X126.342 Y65.436 E.08109 ; perimeter
G1 X128.726 Y65.586 E.07487 ; perimeter
G1 X131.193 Y65.898 E.07798 ; perimeter
G1 X133.636 Y66.364 E.07798 ; perimeter
G1 X136.045 Y66.982 E.07798 ; perimeter
G1 X138.411 Y67.751 E.07798 ; perimeter
G1 X140.631 Y68.63 E.07487 ; perimeter
G1 X142.974 Y69.725 E.08109 ; perimeter
G1 X145.153 Y70.923 E.07797 ; perimeter
G1 X147.253 Y72.256 E.07798 ; perimeter
G1 X149.265 Y73.718 E.07798 ; perimeter
G1 X151.181 Y75.303 E.07798 ; perimeter
G1 X152.922 Y76.938 E.07487 ; perimeter
G1 X154.697 Y78.819 E.08109 ; perimeter
G1 X156.282 Y80.735 E.07797 ; perimeter
G1 X157.744 Y82.747 E.07798 ; perimeter
G1 X159.077 Y84.847 E.07798 ; perimeter
G1 X160.275 Y87.027 E.07798 ; perimeter
G1 X161.18 Y88.951 E.06669 ; perimeter
G1 X161.334 Y89.277 E.01129 ; perimeter
G1 X162.249 Y91.589 E.07798 ; perimeter
G1 X163.018 Y93.955 E.07798 ; perimeter
G1 X163.636 Y96.364 E.07798 ; perimeter
G1 X164.102 Y98.807 E.07798 ; perimeter
G1 X164.414 Y101.274 E.07798 ; perimeter
G1 X164.57 Y103.756 E.07798 ; perimeter
G1 X164.57 Y106.244 E.07798 ; perimeter
G1 X164.414 Y108.726 E.07798 ; perimeter
G1 X164.115 Y111.095 E.07487 ; perimeter
G1 X163.636 Y113.636 E.08109 ; perimeter
G1 X163.018 Y116.045 E.07797 ; perimeter
G1 X162.249 Y118.411 E.07798 ; perimeter
G1 X161.334 Y120.723 E.07798 ; perimeter
G1 X161.022 Y121.386 E.02299 ; perimeter
G1 X160.275 Y122.973 E.05499 ; perimeter
G1 X159.077 Y125.153 E.07798 ; perimeter
G1 X157.744 Y127.253 E.07798 ; perimeter
G1 X156.282 Y129.265 E.07798 ; perimeter
G1 X154.697 Y131.181 E.07798 ; perimeter
G1 X153.062 Y132.922 E.07487 ; perimeter
G1 X151.181 Y134.697 E.08109 ; perimeter
G1 X149.265 Y136.282 E.07797 ; perimeter
G1 X147.253 Y137.744 E.07798 ; perimeter
G1 X145.153 Y139.077 E.07798 ; perimeter
G1 X142.973 Y140.275 E.07798 ; perimeter
G1 X141.049 Y141.18 E.06669 ; perimeter
G1 X140.723 Y141.334 E.01129 ; perimeter
G1 X138.411 Y142.249 E.07798 ; perimeter
G1 X136.045 Y143.018 E.07798 ; perimeter
G1 X133.636 Y143.636 E.07798 ; perimeter
G1 X131.193 Y144.102 E.07798 ; perimeter
G1 X128.726 Y144.414 E.07798 ; perimeter
G1 X126.244 Y144.57 E.07798 ; perimeter
G1 X123.756 Y144.57 E.07798 ; perimeter
G1 X121.274 Y144.414 E.07798 ; perimeter
G1 X118.905 Y144.115 E.07487 ; perimeter
G1 X116.364 Y143.636 E.08109 ; perimeter
G1 X113.955 Y143.018 E.07797 ; perimeter
G1 X111.589 Y142.249 E.07798 ; perimeter
G1 X109.277 Y141.334 E.07798 ; perimeter
G1 X108.614 Y141.022 E.02299 ; perimeter
G1 X107.027 Y140.275 E.05499 ; perimeter
G1 X104.847 Y139.077 E.07798 ; perimeter
G1 X102.747 Y137.744 E.07798 ; perimeter
G1 X100.735 Y136.282 E.07798 ; perimeter
G1 X98.819 Y134.697 E.07798 ; perimeter
G1 X97.078 Y133.062 E.07487 ; perimeter
G1 X95.303 Y131.181 E.08109 ; perimeter
G1 X93.718 Y129.265 E.07797 ; perimeter
G1 X92.256 Y127.253 E.07798 ; perimeter
G1 X90.923 Y125.153 E.07798 ; perimeter
G1 X89.725 Y122.973 E.07798 ; perimeter
G1 X88.666 Y120.723 E.07798 ; perimeter
G1 X87.751 Y118.411 E.07798 ; perimeter
G1 X86.982 Y116.045 E.07798 ; perimeter
G1 X86.364 Y113.636 E.07798 ; perimeter
G1 X85.898 Y111.193 E.07798 ; perimeter
G1 X85.586 Y108.726 E.07798 ; perimeter
G1 X85.43 Y106.244 E.07798 ; perimeter
G1 X85.43 Y103.756 E.07798 ; perimeter
G1 X85.586 Y101.274 E.07798 ; perimeter
G1 X85.885 Y98.905 E.07487 ; perimeter
G1 X86.364 Y96.364 E.08109 ; perimeter
G1 X86.982 Y93.955 E.07797 ; perimeter
G1 X87.751 Y91.589 E.07798 ; perimeter
G1 X88.666 Y89.277 E.07798 ; perimeter
G1 X89.725 Y87.027 E.07798 ; perimeter
G1 X90.923 Y84.847 E.07798 ; perimeter
G1 X92.256 Y82.747 E.07798 ; perimeter
G1 X93.718 Y80.735 E.07798 ; perimeter
G1 X95.265 Y78.865 E.0761 ; perimeter
M204 S1000 ; adjust acceleration
;WIPE_START
G1 F8640
G1 X96.938 Y77.078 E-.56522 ; wipe and retract
G1 X97.551 Y76.499 E-.19478 ; wipe and retract
;WIPE_END
G1 E-.04 F2100 ; retract
G1 Z.6 F720 ; lift Z
G1 X155.258 Y79.674 F10800 ; move to first infill point
G1 Z.2 F720 ; restore layer Z
G1 E.8 F2100 ;  ; unretract
M204 S800 ; adjust acceleration
;TYPE:Solid infill
;WIDTH:0.420837
G1 F1200
G1 X152.713 Y77.13 E.11308 ; infill
G1 X150.994 Y75.515 E.07411 ; infill
G1 X149.091 Y73.942 E.0776 ; infill
G1 X148.722 Y73.673 E.01435 ; infill
G1 X156.327 Y81.278 E.33797 ; infill
G1 X157.51 Y82.906 E.06324 ; infill
G1 X157.665 Y83.15 E.00909 ; infill
G1 X146.85 Y72.335 E.48063 ; infill
G1 X145.387 Y71.407 E.05444 ; infill
G1 X158.593 Y84.613 E.58689 ; infill
G1 X158.833 Y84.991 E.01407 ; infill
G1 X159.317 Y85.871 E.03157 ; infill
G1 X144.129 Y70.683 E.67498 ; infill
G1 X142.942 Y70.03 E.04257 ; infill
G1 X159.97 Y87.058 E.75673 ; infill
G1 X160.459 Y88.082 E.03566 ; infill
G1 X141.923 Y69.546 E.82375 ; infill
G1 X140.919 Y69.077 E.03483 ; infill
G1 X160.934 Y89.092 E.88948 ; infill
G1 X161.074 Y89.389 E.01033 ; infill
G1 X161.321 Y90.013 E.02109 ; infill
G1 X139.987 Y68.679 E.94811 ; infill
G1 X139.102 Y68.329 E.0299 ; infill
G1 X161.671 Y90.898 E1.003 ; infill
G1 X162.011 Y91.773 E.02948 ; infill
M73 P0 R115
G1 X138.227 Y67.989 E1.05697 ; infill
G1 X137.436 Y67.731 E.02616 ; infill
M73 Q0 S115
G1 X162.269 Y92.564 E1.10358 ; infill
G1 X162.526 Y93.356 E.02616 ; infill
G1 X136.644 Y67.474 E1.1502 ; infill
G1 X135.863 Y67.227 E.02575 ; infill
G1 X162.773 Y94.137 E1.19588 ; infill
G1 X162.957 Y94.856 E.02333 ; infill
G1 X135.144 Y67.043 E1.23604 ; infill
G1 X134.425 Y66.858 E.02333 ; infill
G1 X163.142 Y95.575 E1.27621 ; infill
G1 X163.327 Y96.295 E.02333 ; infill
G1 X133.705 Y66.673 E1.31637 ; infill
G1 X133.034 Y66.537 E.02152 ; infill
G1 X163.463 Y96.966 E1.35226 ; infill
G1 X163.589 Y97.626 E.02113 ; infill
G1 X132.374 Y66.411 E1.38721 ; infill
G1 X131.713 Y66.285 E.02113 ; infill
G1 X163.715 Y98.287 E1.42216 ; infill
G1 X163.834 Y98.94 E.02087 ; infill
G1 X131.06 Y66.166 E1.45648 ; infill
G1 X130.448 Y66.089 E.01938 ; infill
G1 X163.911 Y99.552 E1.4871 ; infill
G1 X163.989 Y100.163 E.01938 ; infill
M73 P1 R115
M73 Q1 S115
G1 X129.837 Y66.011 E1.51772 ; infill
G1 X129.225 Y65.934 E.01938 ; infill
G1 X164.066 Y100.775 E1.54834 ; infill
G1 X164.137 Y101.381 E.01917 ; infill
G1 X128.619 Y65.863 E1.57845 ; infill
G1 X128.049 Y65.827 E.01796 ; infill
G1 X164.173 Y101.951 E1.60539 ; infill
G1 X164.209 Y102.522 E.01796 ; infill
G1 X127.478 Y65.791 E1.63233 ; infill
G1 X126.908 Y65.755 E.01796 ; infill
G1 X164.245 Y103.092 E1.65927 ; infill
G1 X164.281 Y103.662 E.01796 ; infill
G1 X126.338 Y65.719 E1.68621 ; infill
G1 X125.802 Y65.717 E.01684 ; infill
G1 X164.287 Y104.203 E1.71032 ; infill
G1 X164.287 Y104.738 E.01679 ; infill
G1 X125.266 Y65.716 E1.73412 ; infill
G1 X124.73 Y65.715 E.01684 ; infill
G1 X164.287 Y105.272 E1.75793 ; infill
G1 X164.287 Y105.807 E.01679 ; infill
G1 X124.194 Y65.714 E1.78174 ; infill
G1 X123.665 Y65.719 E.01663 ; infill
G1 X164.281 Y106.335 E1.80498 ; infill
G1 X164.25 Y106.838 E.01583 ; infill
G1 X123.162 Y65.75 E1.82592 ; infill
G1 X122.66 Y65.782 E.01583 ; infill
M73 P1 R114
M73 Q1 S114
G1 X164.218 Y107.34 E1.84686 ; infill
G1 X164.186 Y107.843 E.01583 ; infill
G1 X122.157 Y65.814 E1.8678 ; infill
G1 X121.654 Y65.845 E.01583 ; infill
G1 X164.155 Y108.346 E1.88874 ; infill
G1 X164.115 Y108.84 E.01559 ; infill
G1 X121.16 Y65.885 E1.90893 ; infill
G1 X120.685 Y65.945 E.01503 ; infill
G1 X164.055 Y109.315 E1.92735 ; infill
G1 X163.995 Y109.79 E.01503 ; infill
G1 X120.21 Y66.005 E1.94577 ; infill
G1 X119.736 Y66.065 E.01503 ; infill
G1 X163.935 Y110.264 E1.9642 ; infill
G1 X163.875 Y110.739 E.01503 ; infill
G1 X119.261 Y66.125 E1.98262 ; infill
G1 X118.79 Y66.189 E.01494 ; infill
G1 X163.806 Y111.205 E2.00052 ; infill
G1 X163.722 Y111.654 E.01438 ; infill
G1 X118.342 Y66.274 E2.0167 ; infill
G1 X117.893 Y66.36 E.01436 ; infill
G1 X163.637 Y112.104 E2.03288 ; infill
G1 X163.552 Y112.554 E.01438 ; infill
M73 P2 R114
M73 Q2 S114
G1 X117.444 Y66.446 E2.04906 ; infill
G1 X116.995 Y66.531 E.01436 ; infill
G1 X163.468 Y113.004 E2.06525 ; infill
G1 X163.383 Y113.453 E.01438 ; infill
G1 X116.546 Y66.617 E2.08143 ; infill
G1 X116.115 Y66.72 E.01394 ; infill
G1 X163.28 Y113.885 E2.09605 ; infill
G1 X163.171 Y114.311 E.0138 ; infill
G1 X115.689 Y66.829 E2.1101 ; infill
G1 X115.264 Y66.938 E.0138 ; infill
G1 X163.062 Y114.736 E2.12415 ; infill
G1 X162.953 Y115.161 E.0138 ; infill
G1 X114.839 Y67.047 E2.13819 ; infill
G1 X114.414 Y67.156 E.0138 ; infill
G1 X162.844 Y115.586 E2.15224 ; infill
G1 X162.732 Y116.009 E.01374 ; infill
M73 P2 R113
M73 Q2 S113
G1 X113.991 Y67.268 E2.16608 ; infill
G1 X113.587 Y67.399 E.01333 ; infill
G1 X162.601 Y116.413 E2.17818 ; infill
G1 X162.47 Y116.816 E.01333 ; infill
G1 X113.184 Y67.53 E2.19028 ; infill
G1 X112.78 Y67.661 E.01333 ; infill
G1 X162.339 Y117.22 E2.20238 ; infill
G1 X162.208 Y117.623 E.01333 ; infill
G1 X112.377 Y67.792 E2.21449 ; infill
G1 X111.974 Y67.923 E.01333 ; infill
G1 X162.077 Y118.026 E2.22659 ; infill
G1 X161.94 Y118.424 E.01321 ; infill
G1 X111.576 Y68.06 E2.23817 ; infill
G1 X111.193 Y68.212 E.01294 ; infill
G1 X161.788 Y118.807 E2.24845 ; infill
G1 X161.637 Y119.19 E.01294 ; infill
G1 X110.81 Y68.363 E2.25873 ; infill
G1 X110.428 Y68.515 E.01294 ; infill
G1 X161.485 Y119.572 E2.269 ; infill
G1 X161.334 Y119.955 E.01294 ; infill
G1 X110.045 Y68.666 E2.27928 ; infill
G1 X109.662 Y68.818 E.01294 ; infill
G1 X161.182 Y120.338 E2.28956 ; infill
G1 X161.025 Y120.715 E.01284 ; infill
M73 P3 R113
M73 Q3 S113
G1 X109.285 Y68.975 E2.29934 ; infill
G1 X108.921 Y69.146 E.01262 ; infill
G1 X160.854 Y121.079 E2.30789 ; infill
G1 X160.683 Y121.442 E.01262 ; infill
G1 X108.558 Y69.317 E2.31644 ; infill
G1 X108.194 Y69.488 E.01262 ; infill
G1 X160.512 Y121.806 E2.32499 ; infill
G1 X160.341 Y122.169 E.01262 ; infill
